svg/motor_alt.svg

<svg width="24" height="24" viewBox="0 0 24 24"  xmlns="http://www.w3.org/2000/svg">
<path fill-rule="evenodd" clip-rule="evenodd" d="M4 5C2.89543 5 2 5.89543 2 7V14C2 15.1046 2.89543 16 4 16H15C16.1046 16 17 15.1046 17 14V13H18V11.5H22V9.5H18V8H17V7C17 5.89543 16.1046 5 15 5H4ZM5 7H14V8H5V7ZM14 9H5V10H14V9ZM5 11H14V12H5V11ZM14 13H5V14H14V13Z" />
<path d="M16 17H3V19H16V17Z" />
</svg>

<svg width="24" height="24" viewBox="0 0 24 24" xmlns="http://www.w3.org/2000/svg"><path fill-rule="evenodd" clip-rule="evenodd" d="M4 5a2 2 0 0 0-2 2v7a2 2 0 0 0 2 2h11a2 2 0 0 0 2-2v-1h1v-1.5h4v-2h-4V8h-1V7a2 2 0 0 0-2-2H4zm1 2h9v1H5V7zm9 2H5v1h9V9zm-9 2h9v1H5v-1zm9 2H5v1h9v-1z"/><path d="M16 17H3v2h13v-2z"/></svg>
